storage/app/icons/phosphoricons/thin/medal-military-thin.svg

<svg xmlns="http://www.w3.org/2000/svg" fill="currentColor" viewBox="0 0 256 256"><path d="M207 44H49a13 13 0 0 0-13 13v49.21A13 13 0 0 0 43.62 118l70.72 32.14a44 44 0 1 0 27.32 0L212.38 118a13 13 0 0 0 7.62-11.79V57a13 13 0 0 0-13-13m-43 8v79.24l-36 16.37-36-16.37V52ZM44 106.21V57a5 5 0 0 1 5-5h35v75.61l-37.07-16.85a5 5 0 0 1-2.93-4.55M164 192a36 36 0 1 1-36-36 36 36 0 0 1 36 36m48-85.79a5 5 0 0 1-2.93 4.55L172 127.61V52h35a5 5 0 0 1 5 5Z"/></svg>

<svg xmlns="http://www.w3.org/2000/svg" viewBox="0 0 256 256" fill="currentColor"><path d="M207,44H49A13,13,0,0,0,36,57v49.21A13,13,0,0,0,43.62,118l70.72,32.14a44,44,0,1,0,27.32,0L212.38,118A13,13,0,0,0,220,106.21V57A13,13,0,0,0,207,44Zm-43,8v79.24l-36,16.37L92,131.24V52ZM44,106.21V57a5,5,0,0,1,5-5H84v75.61L46.93,110.76A5,5,0,0,1,44,106.21ZM164,192a36,36,0,1,1-36-36A36,36,0,0,1,164,192Zm48-85.79a5,5,0,0,1-2.93,4.55L172,127.61V52h35a5,5,0,0,1,5,5Z"/></svg>
